icon/lg/grammarly.svg

<?xml version="1.0" encoding="UTF-8"?>
<svg viewBox="0 0 512 121" version="1.1" xmlns="http://www.w3.org/2000/svg" preserveAspectRatio="xMidYMid" height="1em" width="1em">
  <g>
    <path d="M168.13546,40.1335772 C173.634329,40.1335772 177.075381,42.2554056 179.894875,45.1146121 L180.416597,45.6590164 C180.502453,45.751078 180.587791,45.8437752 180.672652,45.9370657 L180.672652,45.863 C180.672652,42.8903284 183.138162,40.4248187 186.182389,40.4248187 C189.22536,40.4248187 191.688359,42.8903284 191.688359,45.9370657 L191.688359,70.9662575 C191.688359,77.9334566 190.023763,83.0100968 186.761106,86.2752652 C183.138162,89.9032301 177.555615,91.4987814 170.019742,91.4987814 C164.871547,91.4987814 160.37739,90.6288231 155.812933,88.8135853 C153.928651,88.090503 152.695896,86.5652513 152.695896,84.5328377 C152.695896,82.067328 154.724544,80.0374252 157.190053,80.0374252 C157.915646,80.0374252 158.493108,80.1805352 159.001525,80.3989663 C162.191372,81.8501523 165.59714,82.7201106 169.729756,82.7201106 C177.266885,82.7201106 180.819529,79.0934011 180.819529,72.1274574 L180.819529,70.2406646 C177.555615,74.1598709 174.006738,76.5525703 168.13546,76.5525703 C159.196783,76.5525703 151.103489,70.1279023 150.886384,58.8802018 L150.881914,58.2708911 C150.881914,46.6626587 159.218701,40.1335772 168.13546,40.1335772 Z M171.324052,49.2737892 C166.068449,49.2737892 162.0643,52.8268081 161.906236,57.9549706 L161.901386,58.4152564 C161.901386,63.7831381 165.961192,67.411103 171.324052,67.411103 C176.579655,67.411103 180.653732,63.8592897 180.814593,58.7311754 L180.819529,58.2708911 C180.819529,52.9733091 176.686912,49.2737892 171.324052,49.2737892 Z M238.879521,40.4248187 C244.893908,40.4248187 249.2437,42.02037 251.996685,44.7758659 C254.896546,47.6757271 256.203367,51.9602407 256.203367,57.1837569 L256.203367,74.8829532 C256.203367,77.8593909 253.810668,80.1805352 250.837996,80.1805352 C247.749047,80.1805352 245.680349,78.0717046 245.554072,75.8273536 L245.547946,75.5357358 C242.865261,78.5121735 239.169507,80.469266 233.804136,80.469266 C226.607417,80.469266 220.669465,76.4028522 220.473532,68.9539712 L220.46854,68.4279374 C220.46854,59.9392528 226.917279,56.0200464 236.12528,56.0200464 C240.03821,56.0200464 242.865261,56.672829 245.620756,57.6155977 L245.620756,56.9640705 C245.620756,52.3945922 242.79245,49.8537614 237.285225,49.8537614 C234.240998,49.8537614 231.775488,50.2906236 229.67403,50.9434062 C229.022503,51.160582 228.588152,51.2346477 228.079734,51.2346477 C225.543925,51.2346477 223.512767,49.2737892 223.512767,46.7329584 C223.512767,44.7758659 224.743011,43.1075042 226.485438,42.4522108 C229.964017,41.147901 233.733836,40.4248187 238.879521,40.4248187 Z M216.40999,40.4248187 C219.817013,40.4248187 221.77285,42.6718973 221.77285,45.7901896 C221.77285,48.5924798 220.015108,50.3134423 217.873598,50.8864124 L217.642745,50.9434062 C212.058943,52.2502268 208.941906,56.5284636 208.941906,64.3643657 L208.941906,74.6657775 C208.941906,77.7125148 206.478907,80.1805352 203.435935,80.1805352 C200.389198,80.1805352 197.926199,77.7125148 197.926199,74.6657775 L197.926199,45.9370657 C197.926199,42.8903284 200.389198,40.4248187 203.435935,40.4248187 C206.478907,40.4248187 208.941906,42.8903284 208.941906,45.9370657 L208.941906,47.6757271 C210.538712,43.9059075 213.146077,40.4248187 216.40999,40.4248187 Z M238.732645,62.6231936 C234.021312,62.6231936 231.123961,64.5087311 231.123961,67.9935859 L231.123961,68.1379513 C231.123961,71.1131336 233.589471,72.8530504 237.138349,72.8530504 C242.286544,72.8530504 245.765122,70.0234888 245.765122,66.0339827 L245.765122,64.0743796 C243.88084,63.2044212 241.417841,62.6231936 238.732645,62.6231936 Z M308.245205,40.1335772 C316.437627,40.1335772 321.366136,45.0671073 321.366136,54.4282611 L321.366136,74.6657775 C321.366136,77.7125148 318.900626,80.1805352 315.8564,80.1805352 C312.812173,80.1805352 310.346663,77.7125148 310.346663,74.6657775 L310.346663,58.0537153 C310.346663,52.8289437 308.02803,50.1437475 303.897924,50.1437475 C299.765308,50.1437475 297.229499,52.8289437 297.229499,58.0537153 L297.229499,74.6657775 C297.229499,77.7125148 294.7665,80.1805352 291.719762,80.1805352 C288.675536,80.1805352 286.210026,77.7125148 286.210026,74.6657775 L286.210026,58.0537153 C286.210026,52.8289437 283.893903,50.1437475 279.761287,50.1437475 C275.628671,50.1437475 273.095372,52.8289437 273.095372,58.0537153 L273.095372,74.6657775 C273.095372,77.7125148 270.629863,80.1805352 267.585636,80.1805352 C264.538899,80.1805352 262.0759,77.7125148 262.0759,74.6657775 L262.0759,45.9370657 C262.0759,42.8903284 264.538899,40.4248187 267.585636,40.4248187 C270.629863,40.4248187 273.095372,42.8903284 273.095372,45.9370657 L273.095372,46.3739279 C275.628671,43.1075042 278.965394,40.1335772 284.54543,40.1335772 C289.618305,40.1335772 293.460935,42.3819112 295.488327,46.3011176 C298.896605,42.3103562 302.956411,40.1335772 308.245205,40.1335772 Z M373.48204,40.1335772 C381.674462,40.1335772 386.602971,45.0671073 386.602971,54.4282611 L386.602971,74.6657775 C386.602971,77.7125148 384.139972,80.1805352 381.093234,80.1805352 C378.049008,80.1805352 375.583498,77.7125148 375.583498,74.6657775 L375.583498,58.0537153 C375.583498,52.8289437 373.264864,50.1437475 369.134759,50.1437475 C365.002143,50.1437475 362.466334,52.8289437 362.466334,58.0537153 L362.466334,74.6657775 C362.466334,77.7125148 360.003335,80.1805352 356.956597,80.1805352 C353.912371,80.1805352 351.449372,77.7125148 351.449372,74.6657775 L351.449372,58.0537153 C351.449372,52.8289437 349.130738,50.1437475 344.998122,50.1437475 C340.865506,50.1437475 338.330952,52.8289437 338.330952,58.0537153 L338.330952,74.6657775 C338.330952,77.7125148 335.865442,80.1805352 332.822471,80.1805352 C329.775733,80.1805352 327.312734,77.7125148 327.312734,74.6657775 L327.312734,45.9370657 C327.312734,42.8903284 329.775733,40.4248187 332.822471,40.4248187 C335.865442,40.4248187 338.330952,42.8903284 338.330952,45.9370657 L338.330952,46.3739279 C340.865506,43.1075042 344.202229,40.1335772 349.782265,40.1335772 C354.855139,40.1335772 358.696514,42.3819112 360.725161,46.3011176 C364.13344,42.3103562 368.19199,40.1335772 373.48204,40.1335772 Z M408.640661,40.4248187 C414.657559,40.4248187 419.00484,42.02037 421.757825,44.7758659 C424.657686,47.6757271 425.961996,51.9602407 425.961996,57.1837569 L425.961996,74.8829532 C425.961996,77.8593909 423.571808,80.1805352 420.601647,80.1805352 C417.510266,80.1805352 415.441491,78.0717046 415.315212,75.8273536 L415.309086,75.5357358 C412.626401,78.5121735 408.928136,80.469266 403.567787,80.469266 C396.367364,80.469266 390.430565,76.4028522 390.234671,68.9539712 L390.22968,68.4279374 C390.22968,59.9392528 396.682185,56.0200464 405.883909,56.0200464 C409.79935,56.0200464 412.626401,56.672829 415.379386,57.6155977 L415.379386,56.9640705 C415.379386,52.3945922 412.556101,49.8537614 407.043854,49.8537614 C403.999627,49.8537614 401.536628,50.2906236 399.43517,50.9434062 C398.783643,51.160582 398.349292,51.2346477 397.840874,51.2346477 C395.302554,51.2346477 393.273907,49.2737892 393.273907,46.7329584 C393.273907,44.7758659 394.506662,43.1075042 396.245323,42.4522108 C399.725157,41.147901 403.494976,40.4248187 408.640661,40.4248187 Z M408.496295,62.6231936 C403.782452,62.6231936 400.885101,64.5087311 400.885101,67.9935859 L400.885101,68.1379513 C400.885101,71.1131336 403.3481,72.8530504 406.899489,72.8530504 C412.045173,72.8530504 415.526262,70.0234888 415.526262,66.0339827 L415.526262,64.0743796 C413.64198,63.2044212 411.17647,62.6231936 408.496295,62.6231936 Z M450.32083,40.4248187 C453.726598,40.4248187 455.68118,42.6718973 455.68118,45.7901896 C455.68118,48.5924798 453.924608,50.3134423 451.782049,50.8864124 L451.551075,50.9434062 C445.971039,52.2502268 442.854002,56.5284636 442.854002,64.3643657 L442.854002,74.6657775 C442.854002,77.7125148 440.391003,80.1805352 437.344265,80.1805352 C434.300039,80.1805352 431.834529,77.7125148 431.834529,74.6657775 L431.834529,45.9370657 C431.834529,42.8903284 434.300039,40.4248187 437.344265,40.4248187 C440.391003,40.4248187 442.854002,42.8903284 442.854002,45.9370657 L442.854002,47.6757271 C444.448298,43.9059075 447.056917,40.4248187 450.32083,40.4248187 Z M464.525129,26.3485659 C467.571866,26.3485659 470.037376,28.8128203 470.037376,31.8595576 L470.037376,74.6657775 C470.037376,77.7125148 467.571866,80.1805352 464.525129,80.1805352 C461.480902,80.1805352 459.017903,77.7125148 459.017903,74.6657775 L459.017903,31.8595576 C459.017903,28.8128203 461.480902,26.3485659 464.525129,26.3485659 Z M506.784016,40.4248187 C509.611067,40.4248187 512,42.5990869 512,45.5014589 C512,46.3739279 511.712525,47.6054274 511.495349,48.1138447 L497.940067,80.6889524 C494.678664,88.5964095 491.418517,91.5715918 484.822902,91.5715918 C482.357393,91.5715918 480.618731,91.2100507 478.807259,90.5560127 C477.211708,89.9760404 475.326171,88.6692199 475.326171,85.9865344 C475.326171,83.3013382 477.428884,81.4861004 479.677218,81.4861004 C480.352876,81.4861004 480.809824,81.574192 481.183911,81.6812688 L481.487434,81.7760865 C482.430203,82.067328 483.011431,82.2142041 483.809834,82.2142041 C485.764416,82.2142041 486.707184,81.8501523 487.722764,79.8905491 L488.083049,79.0205907 L474.821519,48.25821 C474.531533,47.5326171 474.240292,46.4454829 474.240292,45.7186346 C474.240292,42.5990869 476.632991,40.4248187 479.677218,40.4248187 C482.331882,40.4248187 483.909143,41.8395674 484.862615,44.2807344 L493.37561,67.1939272 L501.491455,44.6289898 C502.363924,42.3103562 503.954454,40.4248187 506.784016,40.4248187 Z" fill="#000000"/>
    <g>
      <path d="M60.1978551,0 C93.4458311,0 120.39571,26.9762415 120.39571,60.2568566 C120.39571,92.5145457 95.0732345,118.853277 63.2379691,120.43821 L57.1578746,120.43821 C25.3247906,118.853231 0,92.5145175 0,60.2568566 C0,26.9762415 26.9523898,0 60.1978551,0 Z" fill="#15C39A"/>
      <path d="M57.7825594,24.9275084 C71.3001809,24.0211448 83.3214238,30.7096559 90.0111903,41.1629652 C91.0694513,42.9869904 90.5560127,45.3056241 88.7972657,46.5258254 C86.9443673,47.8125604 84.5064754,47.2451416 83.1130355,45.2817724 C78.2799335,38.4727476 69.8427182,32.8399869 60.2242175,32.8399869 C41.7692998,32.8399869 27.6076831,51.3727363 35.0456389,70.7829763 C38.3221055,79.3344285 46.0877079,85.4567762 55.1287471,86.8778337 C66.2335836,88.6215165 76.39063,84.6684157 82.2405665,76.0780475 L82.2405665,76.0780475 L78.5849838,76.5914862 L72.2768442,76.5914862 C70.274559,76.5914862 68.4216607,75.2394729 68.065141,73.2673162 C67.596895,70.6787821 69.5728177,68.422916 72.0747326,68.422916 L72.0747326,68.422916 L94.2228935,68.422916 L94.2228935,91.6770413 C94.2228935,94.1814669 91.9720488,96.1599004 89.3835147,95.6929097 C87.4126133,95.33639 86.0643662,93.4797256 86.0643662,91.4774405 L86.0643662,91.4774405 L86.0643662,87.5946393 L86.8313857,83.2988275 C80.3537737,90.7882527 70.8444885,95.4179878 60.2242175,95.4179878 C40.0055314,95.4179878 23.7487336,78.6690924 24.9249977,58.1553987 C25.9368107,40.5265021 40.1812806,26.1100492 57.7825594,24.9275084 Z" fill="#FFFFFF"/>
    </g>
  </g>
</svg>

<svg width="512" height="121" xmlns="http://www.w3.org/2000/svg" preserveAspectRatio="xMidYMid"><path d="M168.135 40.134c5.5 0 8.94 2.121 11.76 4.98l.522.545.256.278v-.074c0-2.973 2.465-5.438 5.51-5.438a5.506 5.506 0 0 1 5.505 5.512v25.03c0 6.966-1.664 12.043-4.927 15.308-3.623 3.628-9.205 5.224-16.741 5.224-5.148 0-9.643-.87-14.207-2.685-1.884-.723-3.117-2.249-3.117-4.281 0-2.466 2.029-4.496 4.494-4.496.726 0 1.303.144 1.812.362 3.19 1.451 6.595 2.321 10.728 2.321 7.537 0 11.09-3.627 11.09-10.593v-1.886c-3.264 3.919-6.813 6.312-12.685 6.312-8.938 0-17.032-6.425-17.249-17.673l-.004-.61c0-11.607 8.337-18.136 17.253-18.136Zm3.19 9.14c-5.257 0-9.26 3.553-9.419 8.681l-.005.46c0 5.368 4.06 8.996 9.423 8.996 5.256 0 9.33-3.552 9.49-8.68l.006-.46c0-5.298-4.133-8.997-9.496-8.997Zm67.555-8.85c6.014 0 10.364 1.596 13.117 4.352 2.9 2.9 4.206 7.184 4.206 12.408v17.699c0 2.976-2.392 5.298-5.365 5.298-3.089 0-5.158-2.11-5.284-4.354l-.006-.291c-2.683 2.976-6.378 4.933-11.744 4.933-7.197 0-13.135-4.066-13.33-11.515l-.005-.526c0-8.489 6.448-12.408 15.656-12.408 3.913 0 6.74.653 9.496 1.596v-.652c0-4.57-2.829-7.11-8.336-7.11-3.044 0-5.51.437-7.611 1.09-.651.217-1.086.29-1.594.29-2.536 0-4.567-1.96-4.567-4.501a4.572 4.572 0 0 1 2.972-4.28c3.479-1.305 7.249-2.028 12.395-2.028Zm-22.47 0c3.407 0 5.363 2.248 5.363 5.366 0 2.802-1.758 4.523-3.9 5.096l-.23.057c-5.584 1.307-8.701 5.585-8.701 13.421v10.302a5.508 5.508 0 1 1-11.016 0V45.937a5.507 5.507 0 0 1 5.51-5.512 5.506 5.506 0 0 1 5.506 5.512v1.739c1.597-3.77 4.204-7.251 7.468-7.251Zm22.323 22.2c-4.712 0-7.609 1.885-7.609 5.37v.144c0 2.975 2.465 4.715 6.014 4.715 5.149 0 8.627-2.83 8.627-6.819v-1.96c-1.884-.87-4.347-1.45-7.032-1.45Zm69.512-22.49c8.193 0 13.121 4.933 13.121 14.294v20.238a5.51 5.51 0 1 1-11.02 0V58.054c0-5.225-2.318-7.91-6.448-7.91-4.133 0-6.669 2.685-6.669 7.91v16.612a5.51 5.51 0 1 1-11.019 0V58.054c0-5.225-2.316-7.91-6.449-7.91-4.132 0-6.666 2.685-6.666 7.91v16.612a5.51 5.51 0 1 1-11.02 0V45.937a5.507 5.507 0 0 1 5.51-5.512 5.509 5.509 0 0 1 5.51 5.512v.437c2.534-3.266 5.87-6.24 11.45-6.24 5.073 0 8.916 2.248 10.943 6.167 3.409-3.99 7.468-6.167 12.757-6.167Zm65.237 0c8.192 0 13.121 4.933 13.121 14.294v20.238a5.51 5.51 0 1 1-11.02 0V58.054c0-5.225-2.318-7.91-6.448-7.91-4.133 0-6.669 2.685-6.669 7.91v16.612a5.51 5.51 0 1 1-11.017 0V58.054c0-5.225-2.318-7.91-6.45-7.91-4.133 0-6.668 2.685-6.668 7.91v16.612a5.51 5.51 0 1 1-11.018 0V45.937a5.507 5.507 0 0 1 5.51-5.512 5.508 5.508 0 0 1 5.508 5.512v.437c2.535-3.266 5.871-6.24 11.451-6.24 5.073 0 8.915 2.248 10.943 6.167 3.408-3.99 7.467-6.167 12.757-6.167Zm35.159.29c6.017 0 10.364 1.596 13.117 4.352 2.9 2.9 4.204 7.184 4.204 12.408v17.699c0 2.976-2.39 5.298-5.36 5.298-3.092 0-5.16-2.11-5.287-4.354l-.006-.291c-2.683 2.976-6.38 4.933-11.741 4.933-7.2 0-13.137-4.066-13.333-11.515l-.005-.526c0-8.489 6.452-12.408 15.654-12.408 3.915 0 6.742.653 9.495 1.596v-.652c0-4.57-2.823-7.11-8.335-7.11-3.044 0-5.507.437-7.609 1.09-.651.217-1.086.29-1.594.29-2.538 0-4.567-1.96-4.567-4.501a4.577 4.577 0 0 1 2.971-4.28c3.48-1.305 7.25-2.028 12.396-2.028Zm-.145 22.2c-4.714 0-7.61 1.885-7.61 5.37v.144c0 2.975 2.462 4.715 6.013 4.715 5.146 0 8.627-2.83 8.627-6.819v-1.96c-1.884-.87-4.35-1.45-7.03-1.45Zm41.825-22.2c3.406 0 5.36 2.248 5.36 5.366 0 2.802-1.756 4.523-3.899 5.096l-.23.057c-5.581 1.307-8.698 5.585-8.698 13.421v10.302a5.51 5.51 0 1 1-11.02 0V45.937a5.509 5.509 0 0 1 5.51-5.512 5.507 5.507 0 0 1 5.51 5.512v1.739c1.594-3.77 4.203-7.251 7.467-7.251Zm14.204-14.075a5.508 5.508 0 0 1 5.512 5.51v42.807a5.509 5.509 0 1 1-11.02 0V31.86a5.505 5.505 0 0 1 5.508-5.511Zm42.259 14.076c2.827 0 5.216 2.174 5.216 5.076 0 .873-.287 2.104-.505 2.613L497.94 80.689c-3.261 7.907-6.521 10.883-13.117 10.883-2.466 0-4.204-.362-6.016-1.016-1.595-.58-3.48-1.887-3.48-4.57 0-2.685 2.102-4.5 4.35-4.5.676 0 1.133.088 1.507.195l.303.095c.943.291 1.524.438 2.323.438 1.954 0 2.897-.364 3.913-2.323l.36-.87-13.261-30.763c-.29-.725-.582-1.813-.582-2.54 0-3.119 2.393-5.293 5.437-5.293 2.655 0 4.232 1.415 5.186 3.856l8.513 22.913 8.115-22.565c.873-2.319 2.463-4.204 5.293-4.204Z"/><path d="M60.198 0c33.248 0 60.198 26.976 60.198 60.257 0 32.258-25.323 58.596-57.158 60.181h-6.08C25.325 118.853 0 92.515 0 60.257 0 26.977 26.952 0 60.198 0Z" fill="#15C39A"/><path d="M57.783 24.928C71.3 24.02 83.32 30.71 90.01 41.163a4.038 4.038 0 0 1-1.214 5.363c-1.853 1.287-4.29.72-5.684-1.244-4.833-6.81-13.27-12.442-22.889-12.442-18.455 0-32.616 18.533-25.178 37.943 3.276 8.551 11.042 14.674 20.083 16.095 11.105 1.744 21.262-2.21 27.112-10.8l-3.656.513h-6.308c-2.002 0-3.855-1.352-4.212-3.324a4.085 4.085 0 0 1 4.01-4.844h22.148v23.254a4.084 4.084 0 0 1-4.84 4.016c-1.97-.357-3.319-2.213-3.319-4.216v-3.882l.767-4.296c-6.477 7.49-15.987 12.119-26.607 12.119-20.218 0-36.475-16.749-35.299-37.263 1.012-17.628 15.256-32.045 32.858-33.227Z" fill="#FFF"/></svg>
